X: 1
T: Maureen's Fancy
M: 6/8
L: 1/8
R: jig
K: Gmaj
|:DGG EDB,|DEG ~B,3|DGG AGA|Bdd dge|
dBB BAG|AGB ~E3|DGG AGA|BGG ~G3:|
|:Bdd dBA|Bdd ~d3|egg aga|bgg ~g2 e|
dBB BAG|AGB ~E3|DGG AGA|BGG ~G3:|
